X:515
T:Fight about the Fireside
A:Wyresdale, Lancashire
B:H.S.J. Jackson, 1823
L:1/8
M:C|
O:England
Z:Richard Robinson 
%%TUNEURL: http://www.leeds.ac.uk/music/Info/RRTuneBk/gettune/00000e37.html
%%ID:00000e37
K:D
d |\
AdFd Ee2d | AdFd AdFd | AdAd Fedc | dA2G FED ::
a |\
fdad feeg | fdaf bdad | gbag feeG | ABce fdd ::
%page:59
